X:1
T:Only Where Jesus Is
T:Only Where Jesus Is
T:Edmund Simon Lorenz
T:Emma S. Stilwell, 1901
T:Public Domain Courtesy of the Cyber Hymnal™
C:Edmund Simon Lorenz
Z:Public Domain
Z:Courtesy of the Cyber Hymnal™
%%score ( 1 2 ) ( 3 4 )
L:1/8
Q:1/4=100
M:6/8
K:G
V:1 treble 
V:2 treble 
V:3 bass 
V:4 bass 
V:1
 D | [DG]2 [DG] ([DF][EG])[FA] | [GB]2 [Ac] [Bd]2 z | [GB]>[GB][GB] [Gc]2 [GB] | [FA]3- [FA]2 D | %5
w: 1.~Where|Je- sus is * there|all is bright,|On- ly where Je- sus|is, * There|
w: 2.~Where|Je- sus is * love|reigns a- lone,|On- ly where Je- sus|is, * No|
w: 3.~Where|Je- sus is * faith|finds her wings,|On- ly where Je- sus|is, * Be-|
w: 4.~Where|Je- sus is * I|fain would stay,|On- ly where Je- sus|is, * For|
 [DG]2 [DG] ([DF][EG])[FA] | [GB]2 [Ac] [Bd]2 z | [Fd]>[Fd][Fd] [Ge]2 [E^c] | [Fd]3- [Fd]2 z || %9
w: no dread clouds * make|dark the night,|On- ly where Je- sus|is! *|
w: room for hate, * dis-|trust or moan,|On- ly where Je- sus|is! *|
w: yond all doubt * ex-|ult- ant springs,|On- ly where Je- sus|is! *|
w: oh, my soul * finds|heav’n- ly day,|On- ly where Je- sus|is! *|
"^Refrain" [Gd]>[Gd][Gd] [Ge]2 [GB] | d3- [Gd]2 z | [GB]>[GB][GB] [Gc]2 G | B3- [GB]2 [GB] | %13
w: ||||
w: On- ly where Je- sus|is! On-|* ly where Je- sus|is! Where Je-|
w: ||||
w: ||||
 [FB]2 [FA] [FA]2 [FB] | [FA]2 [EG] (G2 A) | [DB]>[Dd][Gd] [FB]2 [FA] | G3- G2 |] %17
w: ||||
w: * sus is there|all is bright, *|On- ly where Je- sus|is! *|
w: ||||
w: ||||
V:2
 D | x6 | x6 | x6 | x5 D | x6 | x6 | x6 | x6 || x6 | G2 G x3 | x5 G | G2 G x3 | x6 | x3 E3 | x6 | %16
 G3- G2 |] %17
V:3
 [G,B,] | [G,B,]2 [G,B,] [D,A,]2 [D,D] | [G,D]2 [G,D] [G,D]2 z | [G,D]>[G,D][G,D] [G,E]2 [G,D] | %4
w: ~|~ ~ ~ ~|~ ~ ~|~ ~ ~ ~ ~|
 [D,D]3- [D,D]2 [D,C] | [G,,B,]2 [B,,G,] [D,A,]2 [D,D] | [G,D]2 [G,D] [G,D]2 z | A,>A,A, A,2 A, | %8
w: ~ * ~|~ ~ ~ ~|~ ~ ~|~ ~ ~ ~ ~|
 [D,A,]3- [D,A,]2 z || [G,B,]>[G,B,][G,B,] [G,C]2 [G,D] | [G,B,]2 [G,B,] [G,B,]2 z | %11
w: ~ *|~ ~ ~ ~ ~|Je- sus is!|
 [G,D]>[G,D][G,D] [G,E]2 [G,_E] | [G,D]2 [G,D] [G,D]2 [G,D] | [D,D]2 [D,C] [D,C]2 [D,D] | %14
w: ~ ~ ~ ~ ~|Je- sus is! *||
 [E,C]2 [E,B,] [C,C]3 | [D,G,]>[D,B,][D,B,] [D,D]2 [D,C] | [G,,B,]3- [G,,B,]2 |] %17
w: |||
V:4
 x | x6 | x6 | x6 | x6 | x6 | x6 | A,>A,A, A,2 A, | x6 || x6 | x6 | x6 | x6 | x6 | x6 | x6 | x5 |] %17

